X:1
T:Title
%%score ( 1 2 ) { 3 | 4 }
L:1/8
Q:1/4=92
M:4/4
K:F
V:1 treble nm="Grand Piano, Soprano"
V:2 treble 
V:3 treble nm="Choir Pad, Bass"
V:4 bass 
V:1
 [CF][CG][FA][FA] [FA][CG][CG][CF] | [CF][CG][FA][CF] [DF][B,D] [A,C]2- | %2
w: By~Eliza~Edmunds~Hewitt * * * * * * *||
 [A,C]2 [DF]2 [EG]>[EG] [FA]2 | [DG]>[DF] [EG]6 | [CF][CG][FA][FA] [FA][CG][CG][CF] | %5
w: |||
 [CF][CG][FA][CF] [DF][B,D] [A,C]2- | [A,C]2 F2 F>F [FA]2 | [EG]>[EG] [CF]6 | z2 [Fc]4 [FA]2 | %9
w: ||||
 [Fc]>[Ec] [Ec]2 [GB]>[^FA] [GB]2- | [GB]2 [EB]4 [EG]2 | [GB]>[GB] [GB]2 [FA]>[F_A] [F=A]2- | %12
w: |||
 [FA][Fc] [Fc]2 [Fc][Fc] [Fc]2 | [FA]>[FA] [FB][FB] [Fc][Fc] [Fd]2- | [Fd]2 [Fc]2 [FA][Fc]cB | %15
w: |||
 [EA]>[EG] [CF]6- | [CF]2 z2 z4 |] %17
w: ||
V:2
 x8 | x8 | x8 | x8 | x8 | x8 | x8 | x8 | x8 | x8 | x8 | x8 | x8 | x8 | z4 z2 E2 | x8 | x8 |] %17
V:3
 A,B,CC C[K:bass]B,B,A, | A,B,CA, B,F, F,2- | F,2 A,2 A,>A, =B,2 | =B,>B, C6 | %4
 A,B,[K:treble]CC CB,B,[K:bass]A, | A,B,CA, B,F, F,2- | F,2 A,2 A,>A, C2 | B,>B, A,6 | %8
 z2 A,2 A,2 C2 | A,>A, G,2[K:treble] C>C C2- | C2 G,2 G,2 C2 | C>C C2 C>=B, C2- | %12
 C[K:bass]A, A,2 A,A, A,2 | C>C B,B, A,A, B,2- | B,2 A,2 CA, G,2 | C>B, A,6- | A,2 z2 z4 |] %17
V:4
 F,F,F,F, F,F,F,F, | F,F,F,F, B,,D, z2 | z2 D,2 D,>D, G,,2 | G,,>G,, C,6 | F,F,F,F, F,F,F,F, | %5
 F,F,F,F, B,,D, z2 | z2 D,2 D,>D, C,2 | C,>C, F,6 | z2 F,2 F,2 F,2 | F,>F, C,2 C,>C, C,2- | %10
 C,2 C,2 C,2 C,2 | C,>C, F,2 F,>F, F,2- | F,F, F,2 F,F, F,2 | _E,>F, =E,D, C,C, B,,2- | %14
 B,,2 C,2 C,C, C,2 | C,>C, F,6- | F,2 z2 z4 |] %17

